X: 1077
T: A New Scotch Tune.
%R: waltz, minuet
B: Henry Playford "Apollo's Banquet", London 1687 (5th Edition)
F: https://archive.org/details/apollosbanquetco01rugg
Z: 2017 John Chambers <jc:trillian.mit.edu>
M: 3/4
L: 1/8
K: F
% - - - - - - - - - -
|:\
A2 c2 f2 | g3 f d2 | (df2)d fd | cA G>F G2 |\
A2 c2 f2 | g3 f d2 | c'a gf ga | d2 f2 f2 |
a3 b c'a | g2 g2 d2 | (ga) (ge) d>c | c2 (de) d>c |\
f3 d (cA) | G2 g2 g2 | ag/f/ gd ec | A2 f2 f2 |]
% - - - - - - - - - -

%%sep 1 1 500
%%sep 1 1 500

